X: 211
T: New Storace
%R: march, reel
B: "Twenty Four Country Dances for the Year 1793", Preston & Son, eds. p.86
F: http://www.vwml.org/browse/browse-collections-dance-tune-books/browse-prestons1793# 2014-8-7
Z: 2014 John Chambers <jc:trillian.mit.edu>
M: 2/4
L: 1/8
K: D
f |\
ecdB | AFFG | Adcd | (f2e)f |\
ecdB | AFFG | cd {f}ed/c/ | {c}d3 H:|
f |\
gefd | cdea | gefd | (d2c)a |\
^g=gfe | ^dcBA | GEge | (d2"Da Capo"c) |]
% = = = = = = = = = = = = = = = = = = = = = = = = =
%%begintext align
%% The 1st & 2d Cu.s sett & change sides .|
%% Sett & change sides back again :|
%% Lead down 2 Cu.s up 1 :|.
%% Allemande :|:
%%endtext
% = = = = = = = = = = = = = = = = = = = = = = = = =

%%sep 1 1 500
%%sep 1 1 500
